X: 220
T:Bourre d'Armes
M:3/8
L:1/4
Q:100
C:trad
R:Bourre
O:France
A:Morvan
Z:S Piron
K:C
Gcd|ed/2e/2f/2d/2|cde|d3|Gcd|ed/2e/2f/2e/2|dcB|c3:|
|:g f/2g/2a/2g/2|fd/2e/2f/2e/2|cde|d3|g f/2g/2a/2g/2|fd/2e/2f/2e/2|dcB|c
3:||
W:
W: From "Falaleiro" http://home.t-online.de/home/pheld/homepage.htm
